src/actions/24/gnumeric-data-slicer.svg

<svg xmlns="http://www.w3.org/2000/svg" viewBox="0 0 24 24">
    <path d="M4 4v4h4V4H4zm6 0v4h4V4h-4zm6 0v4h4V4h-4zM5 5h2v2H5V5zm12 0h2v2h-2V5zM4 10v4h4v-4H4zm1 1h2v2H5v-2zm-1 5v4h4v-4H4z" style="fill:currentColor;fill-opacity:1;stroke:none;color:#050505;opacity:.7"/>
    <path d="M17 10v4.5a2.495 2.495 0 0 1-4.49 1.5H14v-1h-3v3h1v-1.076A3.449 3.449 0 0 0 14.5 18c1.939 0 3.5-1.561 3.5-3.5V10h-1z" style="fill:#a0b6cb"/>
</svg>

<svg xmlns="http://www.w3.org/2000/svg" viewBox="0 0 24 24">
  <defs id="defs3051">
    <style type="text/css" id="current-color-scheme">
      .ColorScheme-Text {
        color:#363636;
      }
      </style>
  </defs>
 <path style="fill:currentColor;fill-opacity:1;stroke:none" 
     d="M 4 4 L 4 8 L 8 8 L 8 4 L 4 4 z M 10 4 L 10 8 L 14 8 L 14 4 L 10 4 z M 16 4 L 16 8 L 20 8 L 20 4 L 16 4 z M 5 5 L 7 5 L 7 7 L 5 7 L 5 5 z M 17 5 L 19 5 L 19 7 L 17 7 L 17 5 z M 4 10 L 4 14 L 8 14 L 8 10 L 4 10 z M 5 11 L 7 11 L 7 13 L 5 13 L 5 11 z M 4 16 L 4 20 L 8 20 L 8 16 L 4 16 z "
     class="ColorScheme-Text"
     />
 <path 
     style="fill:#1d99f3" 
     d="M 17 10 L 17 14 L 17 14.5 C 17 15.885 15.885 17 14.5 17 C 13.6813 17 12.964866 16.6045 12.509766 16 L 14 16 L 14 15 L 12.050781 15 L 12 15 L 11.048828 15 L 11 15 L 11 16 L 11 18 L 12 18 L 12 16.923828 C 12.6319 17.581828 13.5097 18 14.5 18 C 16.439 18 18 16.439 18 14.5 L 18 14 L 18 10 L 17 10 z "
     />
</svg>
